X: 35173
T: Roof Thatcher's Daughter
R: mazurka
M: 3/4
K: Gmajor
G2 G>D G>B|d>e d>B (3GAB|A2 A>c B>A|B>G D>G (3cBA|
G2 G>D G>B|d2 d>B G>B|A2 A>c (3cBA|G3:|
e2 e>d (3Bcd|e3 f (3gfe|d2 d>B G>B|d>G g>G d>g|
e>^d e>=d B<d|e2 e>f g<e|d>^c d>D (3=cAB|G3:|

